!!!COM: Gentil, Philippe
!!!CDT: b.1928
!!!OTL: National Anthem, Mauritius
!!!ENC: Davis, Matthew J.
!!Vocal Line Only
**kern
*clefG2
*k[]
*C:
*M4/4
=1-
4g
4a
4g
8.e
16f
=2
2.g
8c
8d
=3
4.e
8e
8d
8g
8e
8f
=4
2.d
8d
8e
=5
4f
4e
4d
8e
8f
=6
4g
4f
4.e
8g
=7
4f#
4g
4a
4b
=8
2.g
8r
8g
=9
2ee
8dd
8cc
8r
8b
=10
2cc
8b
4a
8g
=11
4a
8g
[8a
8a]
8g
8f
8e
=12
[2d
8d]
8r
8c
8d
=13
4.e
8d#
8e
8e
8f
=14
8g
8f#
8g
8g#
4.a
8gn
=15
4a
8cc
8cc
8cc
4.b
=16
1cc
==|!
*-
